X:765
T:Reel 765
M:4/4
K:Dmaj
L:1/8
d> (3D>D (3FEF A2A2|B>G (3GFE F>E (3EEE ||F>A (3Acd f>d (3dcB |A2 (3FGA B2A2||F>D (3DDD D>E (3EEE |F>G (3FED B2c2|B>c (3dcB  (3cde d2| (3Bcd cA AcB2|A2c2 |B>A (3ABc e2d2| (3cdc B>A  (3Bcd A2|c>d (3cdc d2d2| (3BcB cd dAF>A (3AEE |B>c (3BcB d>B (3cBA |B2 (3Bcd B>d (3dcd |B>d (3cdc d>c (3cBA |B2BG F2F2|
